public/formular-icons/english/upper-w.svg

<svg style="vertical-align:-.05ex" xmlns="http://www.w3.org/2000/svg" width="2.371ex" height="1.595ex" viewBox="0 -683 1048 705" xmlns:xlink="http://www.w3.org/1999/xlink"><defs><path id="a" d="M436 683q14 0 50-1t67-2q51 0 85 1t39 1q18 0 18-8 0-4-3-15-5-18-9-20t-22-2q-25-1-40-5t-21-8-3-9q0-12 16-238t16-239l2 3q2 3 6 10t12 19 17 30 24 41 30 54 39 67q104 184 118 210t15 32q0 15-19 24t-42 9q-14 0-14 10 0 3 2 13 4 16 6 19t14 3h56q25 0 54-1 66 0 85 2 14 0 14-11 0-6-3-17t-7-15-10-3q-22 0-40-6t-30-14-19-17-12-16l-4-6-169-296Q586-14 585-15q-6-7-24-7-15 0-19 5-3 3-19 246t-17 251l-12-18q-22-37-128-223Q222-13 220-15t-5-4q-5-3-18-3-19 0-21 7 0 3-22 319t-23 318q-2 9-10 11t-39 4H58q-7 7-7 11 1 23 13 35h12q42-3 100-3 125 0 137 3h10q6-6 6-9t-2-18q-5-15-9-19h-21q-61-3-65-17 30-460 34-484l235 414-2 37q-3 42-10 45-6 4-42 5-19 0-25 2t-6 9q0 2 2 12 1 4 2 9t1 7 3 4 4 2 8 1Z"/></defs><g stroke="currentColor" fill="currentColor" stroke-width="0"><use data-c="1D44A" xlink:href="#a" transform="scale(1 -1)"/></g></svg>

<svg style="vertical-align: -0.05ex" xmlns="http://www.w3.org/2000/svg" width="2.371ex" height="1.595ex" role="img" focusable="false" viewBox="0 -683 1048 705" xmlns:xlink="http://www.w3.org/1999/xlink"><defs><path id="MJX-76-TEX-I-1D44A" d="M436 683Q450 683 486 682T553 680Q604 680 638 681T677 682Q695 682 695 674Q695 670 692 659Q687 641 683 639T661 637Q636 636 621 632T600 624T597 615Q597 603 613 377T629 138L631 141Q633 144 637 151T649 170T666 200T690 241T720 295T759 362Q863 546 877 572T892 604Q892 619 873 628T831 637Q817 637 817 647Q817 650 819 660Q823 676 825 679T839 682Q842 682 856 682T895 682T949 681Q1015 681 1034 683Q1048 683 1048 672Q1048 666 1045 655T1038 640T1028 637Q1006 637 988 631T958 617T939 600T927 584L923 578L754 282Q586 -14 585 -15Q579 -22 561 -22Q546 -22 542 -17Q539 -14 523 229T506 480L494 462Q472 425 366 239Q222 -13 220 -15T215 -19Q210 -22 197 -22Q178 -22 176 -15Q176 -12 154 304T131 622Q129 631 121 633T82 637H58Q51 644 51 648Q52 671 64 683H76Q118 680 176 680Q301 680 313 683H323Q329 677 329 674T327 656Q322 641 318 637H297Q236 634 232 620Q262 160 266 136L501 550L499 587Q496 629 489 632Q483 636 447 637Q428 637 422 639T416 648Q416 650 418 660Q419 664 420 669T421 676T424 680T428 682T436 683Z"></path></defs><g stroke="currentColor" fill="currentColor" stroke-width="0" transform="scale(1,-1)"><g data-mml-node="math"><g data-mml-node="mi"><use data-c="1D44A" xlink:href="#MJX-76-TEX-I-1D44A"></use></g></g></g></svg>
